svgs/thin/tree.svg

<svg xmlns="http://www.w3.org/2000/svg" viewBox="0 0 448 512"><!--! Font Awesome Pro 6.3.0 by @fontawesome - https://fontawesome.com License - https://fontawesome.com/license (Commercial License) Copyright 2023 Fonticons, Inc. --><path d="M439.6 391.6l-68.98-79.59h15.2c25.59 0 39.5-29.17 23.19-48.48l-60.86-71.51h10.77c21.28 0 32.9-22.5 19.28-37.31l-134.9-146.5C238.3 2.796 231.2 0 224 0S209.7 2.799 204.7 8.236L69.93 154.7C56.34 169.5 67.93 192 89.21 192h10.73L39.03 263.5C22.72 282.9 36.62 312 62.22 312h15.2l-68.98 79.59c-18.1 21.91-3.813 56.4 24.69 56.4l182.9-.0099v56C216 508.4 219.7 512 224.1 512s7.915-3.578 7.915-8.002v-56l182.8 .0133C443.4 448 458.5 413.4 439.6 391.6zM430.3 421.8c-1.09 2.387-5.42 10.17-15.43 10.17h-182.8v-76.69l61.65-61.66c3.125-3.125 3.125-8.188 0-11.31c-3.125-3.127-8.188-3.127-11.31 0l-50.34 50.35V167.1c0-4.422-3.606-7.984-8.028-7.984s-7.972 3.562-7.972 7.984v100.7L165.7 218.3c-3.125-3.127-8.186-3.127-11.31 0c-3.125 3.125-3.125 8.188 0 11.31l61.65 61.66v140.7H33.12c-9.977 0-14.3-7.773-15.39-10.15c-1.162-2.545-4.393-11.49 2.791-19.78l91.92-106.1H62.21c-8.535 0-12.06-6.154-12.93-8.039c-1.064-2.291-3-8.254 1.926-14.09l83.39-97.88h-45.39c-4.838 0-7.65-2.479-8.67-4.797c-1.176-2.674 .1094-4.533 1.164-5.684l134.8-146.5C218.2 17.09 220.1 16 224 16c3.045 0 5.791 1.088 7.543 2.994l134.9 146.5c1.068 1.16 2.352 3.012 1.184 5.674c-1.02 2.322-3.838 4.807-8.689 4.807h-45.39l83.26 97.83c4.971 5.885 3.033 11.85 1.971 14.14c-.875 1.885-4.396 8.039-12.94 8.039h-50.24l91.93 106.1C434.7 410.3 431.4 419.3 430.3 421.8z"/></svg>

<svg xmlns="http://www.w3.org/2000/svg" viewBox="0 0 448 512"><!-- Font Awesome Pro 6.0.0-alpha2 by @fontawesome - https://fontawesome.com License - https://fontawesome.com/license (Commercial License) --><path d="M439.608 391.586L370.631 311.986H385.828C411.422 311.986 425.326 282.799 409.016 263.484L348.158 191.98H358.924C380.203 191.98 391.828 169.479 378.203 154.666L243.334 8.156C238.334 2.719 231.178 0 224.022 0S209.711 2.719 204.711 8.156L69.934 154.666C56.34 169.479 67.934 191.98 89.215 191.98H99.949L39.029 263.484C22.717 282.799 36.623 311.986 62.215 311.986H77.414L8.436 391.586C-10.562 413.494 4.623 447.996 33.123 447.996H216.028V503.998C216.028 508.422 219.606 512 224.028 512S232.028 508.422 232.028 503.998V447.996H414.828C443.42 447.996 458.514 413.4 439.608 391.586ZM430.254 421.82C429.164 424.207 424.834 431.994 414.828 431.994H232.028V355.303L293.682 293.643C296.807 290.518 296.807 285.455 293.682 282.33C290.557 279.203 285.494 279.203 282.369 282.33L232.028 332.676V167.979C232.028 163.557 228.449 159.979 224.028 159.979S216.028 163.557 216.028 167.979V268.672L165.686 218.326C162.561 215.199 157.5 215.199 154.375 218.326C151.25 221.451 151.25 226.514 154.375 229.639L216.028 291.299V431.994H33.123C23.147 431.994 18.824 424.221 17.737 421.84C16.574 419.295 13.344 410.35 20.528 402.064L112.451 295.986H62.215C53.68 295.986 50.158 289.832 49.283 287.947C48.219 285.656 46.283 279.693 51.209 273.861L134.602 175.979H89.215C84.377 175.979 81.565 173.5 80.545 171.182C79.369 168.508 80.654 166.648 81.709 165.498L216.488 18.986C218.233 17.088 220.979 16 224.022 16C227.067 16 229.813 17.088 231.565 18.994L366.43 165.498C367.498 166.658 368.781 168.51 367.613 171.172C366.594 173.494 363.776 175.979 358.924 175.979H313.531L396.793 273.809C401.764 279.693 399.826 285.656 398.764 287.947C397.889 289.832 394.367 295.986 385.828 295.986H335.592L427.518 402.066C434.662 410.311 431.418 419.27 430.254 421.82Z"/></svg>
